!!!PDT:	1923
!!!LANG: Non-Tone
!!!LING_GROUP: Siouan
!!!REG: Dakotas
!!!COM: Anon.
!!!OTL: Song of the Turtle Who Went to War
!!!ODT: <1918//
!!!MPN: Haretupa [Wolf Head]
!!!MLC: Fort Berthold Reservation, North Dakota, United States of America
!! Song was recorded during either the summer of 1912, 1915, or 1918.
!!!AGN: monody
!!!SOCIAL_FUNCTION: Songs Connected With Legends and Folk-Tales
!!!AMT: irregular
!!!RWG: Transcribed pitches, durations, and meters are only approximate.
!! Drum not recorded.
**kern
*ICvox
*Ifemale
*clefF4
*k[b-e-a-]
*M2/4
*MM76
=1-
8e-
8e-
(12e-
12c
12e-)
=2
4c
4r
=3
8e-+
8c
8c
8c
=4
16c
8.Bn
4c
*M3/4
=5
16e-
16e-
8e-
4G
8c
8e-
*M2/4
=6
16e-
16e-
8e-
4G
=7
8e-
16c
16c
8e-
16c
16c
=8
16c
8.c
4c
=9
8e-
8e-
16G
16G
8G
*M3/4
=10
8e-
8e-
16G
16G
[8G
8G]
16.e-
32c
*M2/4
=11
4c
8c
16G
16G
=12
4.c
16.e-
32c
=13
4c
8c
16G
16G
=14
4c
4r
==
*-
!!!CNT: Mandan
!!!TXO: Mandan
!!!OCY: United States
!!!OCL: Frances Densmore
!!!YOR: Frances Densmore, "Mandan and Hidatsa Music",
!!!YOR: Bulletin 80, page 90, No. 34
!!!PPR: Smithsonian Institution, Bureau of American Ethnology
!!!PPR: Government Printing Office
!!!PDT: 1923
!!!PPP: Washington, DC, United States of America
!!!YEC: Electronic Copyright 2000 David Huron
!!!YER: August 2000
!!!YEN: United States of America
!!!ENC: David Huron
!!!RDT: August 16, 2000
!!!EEV: Release 1.0
!!!AIN: tom, vox
